X:021
L:1/16
M:2/4
K:G
"8va"D2 | G2D2 TE2DC | B,DGB Td2^cd | edcB cBAG | FGAB cDEF |
zD | B/2d/2 z e dBAG | B/2d/2 z d b2g2 | B/2d/2 z e dBAG | FGAB Tc4 |

